X: 557
T:La Aboleda
C:arranged by John Reischman
L:1/8
%Q:1/8=454
M:4/4
K:C
z4 zEAc|:"Am"e2c2 fece|"Dm"zBzd zEAB|\
"E"d2B2 edBd|1 z"Am"Azc zEAc:|2 z"Am"Azc zccc|!
|:"Dm"D2FA d2fe|"Am"zczA ff^de|\
"E"zezd B2^GA|1 z"Am"AAc e2AA:|2 z"Am"AAz AEAc|!
zAAz AAAA|"G"z2G2 B2d2|[g3d3D3G,3][gdDG,] z[gdDG,]z[gdDG,]z[gdDG,]|a2g2
f2gf|!
"Am"zge2 eeee|"G"AGzA BAd2|g2dg2g2g|a2g2 f2g2|!
"Am"zge2 e2e2|:"Dm"Adfd gdfe|"Am"ecec fcee|\
"E"eABc edcB|1 A2Ac eee2:|2 A"Am"cAA A4|!
W:Created with TablEdit http://www.tabledit.com/

